!! 00000] TT[00
!! NN
!!!OTL: Taiyang chulai zhao beiyan
!!!ARE: Asia, China,ÿSichuan, Chongqing
!! Ethnic Group: Han
!! II, 198
!!!SCT: C0221
!!!YEM: Copyright 1995, estate of Helmut Schaffrath.
**kern
*ICvox
*Ivox
*M4/4
*k[f#c#]
*D:
{16dd
16ee
16b
16dd
8b
8f#
2dd
=1
16ee
8dd
16b
8b
8dd
4.b}
{8dd
=2
8b
8b
8b
8dd
8dd
8ee
4b
=3
8b
8f#
8f#
8f#
4b
4r}
=4
{16dd
16ee
16b
16dd
8b
8f#
2dd
=5
16ee
8ee
16dd
8ee
8dd
4.b}
{8dd
=6
8b
8dd
8ee
16b
16dd
8dd
8ee
4b
=7
8b
8dd
8dd
8b
4dd
4r}
=8
{16dd
16ee
16b
16dd
8b
8f#
2dd
=9
16ee
8dd
16b
8b
8dd
4.b}
{8dd
=10
8ee
8dd
16dd
8b
16dd
8dd
8ee
4b
=11
8b
8dd
8f#
8b
4dd
4r}
=12
{16dd
16ee
16b
16dd
8b
8f#
2dd
=13
16ee
8dd
16b
8b
8dd
4.b}
{8dd
=14
8b
8b
8b
8dd
8dd
8ee
4b
=15
8dd
8f#
8b
8dd
8dd
8b
4r}
==
!!!AGN: Shange. Xin minge
!! Tonart: Yu; Haupttoene = 3-6-1-2
!!    Wenig Verzierungen und Glissandi.
!!!ONB: ESAC (Essen Associative Code) Database: CHINA
!!!AMT: simple quadruple
!!!AIN: vox
!!!EED: Helmut Schaffrath
!!!EEV: 1.0
*-
